src/apps/scalable/ksudoku.svg

<svg id="Mplayer" width="64" height="64" enable-background="new 0 0 1024 1024" image-rendering="optimizeSpeed" version="1.1" viewBox="0 0 64 64" xmlns="http://www.w3.org/2000/svg">
 <defs>
  <linearGradient id="linearGradient899" x1="31.641" x2="32.168" y1="61.339" y2="3.8116" gradientTransform="translate(2.5493e-6 2.1051e-6)" gradientUnits="userSpaceOnUse">
   <stop stop-color="#efb528" offset="0"/>
   <stop stop-color="#e69c76" offset="1"/>
  </linearGradient>
 </defs>
 <rect x="4" y="4" width="56" height="56" rx="13.002" ry="13.002" fill="#f9f9f9" stroke-width="3.7795"/>
 <rect x="21.286" y="21.286" width="21.429" height="21.429" ry="0" fill="url(#linearGradient899)" stroke-width="2.1429"/>
 <path d="m35.886 28.672q0 1.2612-0.74774 2.0144-0.7295 0.73569-1.9514 0.98092v0.07006q1.5502 0.17516 2.3162 0.94589 0.78422 0.77072 0.78422 2.0144 0 1.1035-0.52889 1.9443-0.52889 0.84079-1.6414 1.3137-1.0943 0.47294-2.8268 0.47294-1.0213 0-1.8967-0.15765-0.8754-0.14013-1.6779-0.52549v-1.4363q0.82069 0.40288 1.769 0.61307 0.94836 0.2102 1.8238 0.2102 1.7508 0 2.5168-0.64811 0.78422-0.66562 0.78422-1.8217 0-1.1736-0.96659-1.6816-0.94836-0.52549-2.6809-0.52549h-1.2584v-1.3137h1.2766q1.6049 0 2.4256-0.64811 0.83893-0.64811 0.83893-1.7166 0-0.91085-0.63832-1.4013-0.63832-0.50798-1.7326-0.50798-1.0578 0-1.8055 0.29778-0.74774 0.29778-1.4772 0.7532l-0.80246-1.051q0.69303-0.52549 1.7143-0.91085 1.0395-0.38536 2.3526-0.38536 2.0426 0 3.0274 0.87582 1.0031 0.87582 1.0031 2.2246z" fill="#ffffff" stroke-width="1.4894"/>
 <path d="m17.002 4c-7.2029 0-13.002 5.7991-13.002 13.002v4.2852h17.285v-17.287h-4.2832zm25.713 0v17.287h17.285v-4.2852c0-7.2029-5.7991-13.002-13.002-13.002h-4.2832zm-38.715 38.715v4.2832c0 7.2028 5.7991 13.002 13.002 13.002h4.2852v-17.285h-17.287zm38.715 0v17.285h4.2832c7.2029 0 13.002-5.7991 13.002-13.002v-4.2832h-17.285z" fill="#999999"/>
 <path d="m3.998 45.998v1c0 7.2032 5.8006 13.004 13.004 13.004h29.996c7.2032 0 13.004-5.8006 13.004-13.004v-1c0 7.2033-5.8007 13.002-13.004 13.002h-29.996c-7.2033 0-13.004-5.7988-13.004-13.002z" fill="#000000" opacity=".15"/>
 <path d="m3.998 18.004v-1c0-7.2032 5.8006-13.004 13.004-13.004h29.996c7.2032 0 13.004 5.8006 13.004 13.004v1c0-7.2033-5.8007-13.002-13.004-13.002h-29.996c-7.2033 0-13.004 5.7988-13.004 13.002z" fill="#ffffff" opacity=".15"/>
</svg>

<svg width="64" height="64" image-rendering="optimizeSpeed" xmlns="http://www.w3.org/2000/svg"><defs><linearGradient id="a" x1="31.641" x2="32.168" y1="61.339" y2="3.812" gradientUnits="userSpaceOnUse"><stop stop-color="#efb528" offset="0"/><stop stop-color="#e69c76" offset="1"/></linearGradient></defs><rect x="4" y="4" width="56" height="56" rx="13.002" ry="13.002" fill="#f9f9f9"/><rect x="21.286" y="21.286" width="21.429" height="21.429" ry="0" fill="url(#a)"/><path d="M35.886 28.672q0 1.261-.748 2.014-.73.736-1.951.981v.07q1.55.176 2.316.946.784.771.784 2.015 0 1.103-.529 1.944-.528.84-1.641 1.314-1.094.473-2.827.473-1.021 0-1.897-.158-.875-.14-1.677-.526V36.31q.82.403 1.769.613.948.21 1.823.21 1.751 0 2.517-.648.784-.665.784-1.821 0-1.174-.966-1.682-.949-.525-2.681-.525h-1.258v-1.314h1.276q1.605 0 2.426-.648.839-.648.839-1.717 0-.91-.639-1.401-.638-.508-1.732-.508-1.058 0-1.806.298-.748.297-1.477.753l-.802-1.051q.693-.526 1.714-.911 1.04-.385 2.352-.385 2.043 0 3.028.875 1.003.876 1.003 2.225z" fill="#fff"/><path d="M17.002 4C9.799 4 4 9.8 4 17.002v4.285h17.285V4h-4.283zm25.713 0v17.287H60v-4.285C60 9.799 54.2 4 46.998 4h-4.283zM4 42.715v4.283C4 54.201 9.8 60 17.002 60h4.285V42.715H4zm38.715 0V60h4.283C54.201 60 60 54.2 60 46.998v-4.283H42.715z" fill="#999"/><path d="M3.998 45.998v1c0 7.203 5.8 13.004 13.004 13.004h29.996c7.203 0 13.004-5.8 13.004-13.004v-1c0 7.203-5.8 13.002-13.004 13.002H17.002A12.975 12.975 0 0 1 3.998 45.998z" opacity=".15"/><path d="M3.998 18.004v-1C3.998 9.801 9.798 4 17.002 4h29.996c7.203 0 13.004 5.8 13.004 13.004v1c0-7.203-5.8-13.002-13.004-13.002H17.002A12.975 12.975 0 0 0 3.998 18.004z" fill="#fff" opacity=".15"/></svg>
